!!!COM:	Johannes Ockeghem
!!!CDT:	~1425-1497/02/06
!!!OTL:	Ave Maria
!!!AGN:	Motet
!!!SCT:	Ock2002
!!!SCA:	Ock2002
!!!voices:	4
**kern	**text	**kern	**text	**kern	**text	**kern	**text
*staff4	*staff4	*staff3	*staff3	*staff2	*staff2	*staff1	*staff1
*Ivox	*	*Ivox	*	*Ivox	*	*Ivox	*
*I"Bassus	*	*I"Tenor	*	*I"Altus	*	*I"Discantus	*
*I'B	*	*I'T	*	*I'A	*	*I'D	*
*clefF4	*	*clefGv2	*	*clefGv2	*	*clefG2	*
*k[]	*	*k[]	*	*k[]	*	*k[]	*
*M3/1	*	*M3/1	*	*M3/1	*	*M3/1	*
*met(O)	*	*met(O)	*	*met(O)	*	*met(O)	*
!!section: Ave Maria
!!!OMD: Ave Maria
=1-	=1-	=1-	=1-	=1-	=1-	=1-	=1-
0D	A-	0A	A-	0d	A-	1.a	A-
.	.	.	.	.	.	1f	.
1D	-ve	1A	-ve	1d	-ve	.	.
.	.	.	.	.	.	4e/	.
.	.	.	.	.	.	4d/	.
=2	=2	=2	=2	=2	=2	=2	=2
1.C	.	1.c	.	2r	.	1.e	.
.	.	.	.	1G	Ma-	.	.
2D\	.	4B\	.	2F/	.	4d/	.
.	.	4A/	.	.	.	4c/	.
2E\	.	1G	.	2G/	.	1B	.
4D\	.	.	.	4F/	.	.	.
4C/	.	.	.	4E/	.	.	.
=3	=3	=3	=3	=3	=3	=3	=3
2.BB/	.	4G/	Ma-	2D/	.	1B	-ve
.	.	4E/	.	.	.	.	.
.	.	2D/	.	1G	.	.	.
4GG/	.	.	.	.	.	.	.
2C/	.	2E/	.	.	.	1r	.
2D\	.	1A	.	2F/	.	.	.
1BB	.	.	.	1D	.	1b	Ma-
.	.	2G#i/	.	.	.	.	.
=4	=4	=4	=4	=4	=4	=4	=4
1AA	.	1A	-ri-	1.E	-ri-	1cc	.
2r	.	2B\	.	.	.	2b\	.
2AA/	Ma-	2c\	.	2A/	.	2a/	.
1BB-	-ri-	1d	.	2D/	.	2r	.
.	.	.	.	2G/	.	2dd\	-ri-
=5	=5	=5	=5	=5	=5	=5	=5
2AA/	.	2r	.	2A/	.	2cc\	.
2GG/	.	2d\	.	2B\	.	2.b\	.
2C/	.	2e\	.	2G/	.	.	.
.	.	.	.	.	.	4e/	.
2AA/	.	2c\	.	2A/	.	2.a/	.
2.E\	.	2B\	.	[1E	.	.	.
.	.	.	.	.	.	4f/	.
.	.	[2e\	.	.	.	2g/	.
4C/	.	.	.	.	.	.	.
=6	=6	=6	=6	=6	=6	=6	=6
2C/	.	2e\]	.	2E/]	.	1.a	.
2D\	.	1f	.	1D	.	.	.
1F	.	.	.	.	.	.	.
.	.	1d	.	2A/	.	2f/	.
1E	.	.	.	2.G/	.	2.g/	.
.	.	2c#i\	.	.	.	.	.
.	.	.	.	4F/	.	4e/	.
=7	=7	=7	=7	=7	=7	=7	=7
0.D	-a,	1.d	-a,	1A	-a,	1f	-a,
.	.	.	.	0F	gra-	1r	.
.	.	2c\	.	.	.	.	.
.	.	1A	gra-	.	.	1f	gra-
=8	=8	=8	=8	=8	=8	=8	=8
1r	.	1G	-ti-	1E	-ti-	1.g	-ti-
0GG	gra-	0B-	-a	1D	.	.	.
.	.	.	.	.	.	4f/	.
.	.	.	.	.	.	4e/	.
.	.	.	.	1G	.	1d	-a
=9	=9	=9	=9	=9	=9	=9	=9
1AA	-ti-	1A	ple-	1E	-a	1c	ple-
2BB/	.	1G	.	1r	.	2d/	.
2C/	.	.	.	.	.	2.e/	.
2AA/	-a	2A/	.	1E	ple-	.	.
.	.	.	.	.	.	8d/L	.
.	.	.	.	.	.	8c/J	.
2r	.	2G/	.	.	.	4B/	.
.	.	.	.	.	.	4A/	.
=10	=10	=10	=10	=10	=10	=10	=10
2AA/	ple-	2A/	.	2F/	.	2c/	.
2GG/	.	2B\	.	2G/	.	2d/	.
1AA	.	2c\	.	1E	-na,	2A/	.
.	.	1A	.	.	.	2c/	.
1E	.	.	.	2r	.	1B	.
.	.	2G#i/	.	2E/	ple-	.	.
=11	=11	=11	=11	=11	=11	=11	=11
1AA	.	1A	-na,	2.E/	-na,	1A	-na,
.	.	.	.	4D/	.	.	.
2C/	.	1r	.	2E/	.	1r	.
2D\	.	.	.	2F/	.	.	.
1E	.	1c	Do-	1G	.	1r	.
=12	=12	=12	=12	=12	=12	=12	=12
0F	-na,	1c	.	1F	.	1a	Do-
.	.	2c\	-mi-	1r	.	1a	-mi-
.	.	2A/	.	.	.	.	.
2r	.	1A	-nus	[1A	Do-	1a	-nus
[2F\	Do-	.	.	.	.	.	.
=13	=13	=13	=13	=13	=13	=13	=13
2F\]	.	1r	.	1A]	.	1.cc	te-
2E\	.	.	.	.	.	.	.
1C	.	1c	te-	1E	-mi-	.	.
.	.	.	.	.	.	2a/	.
1BB-	-mi-	1d	.	1F	-nus	1b-	.
=14	=14	=14	=14	=14	=14	=14	=14
0F	-nus	2c\	.	1r	.	1a	.
.	.	1A	.	.	.	.	.
.	.	.	.	1A	te-	2.cc\	.
.	.	2.d\	.	.	.	.	.
.	.	.	.	.	.	4b-i\	.
2E\	.	.	.	2G/	.	2g/	.
.	.	4c\	.	.	.	.	.
2D\	.	[2d\	.	2A/	-cum;	2f/	.
=15	=15	=15	=15	=15	=15	=15	=15
2G\	.	2d\]	.	2r	.	2b-i\	.
2A\	.	2c\	.	2F/	te-	2a/	.
2F\	.	2A/	.	2f\	.	1dd	.
2G\	.	2B-i\	.	2d\	.	.	.
2C/	.	1c	.	2e\	.	2cc\	.
[2F\	.	.	.	[2c\	.	[2a/	.
=16	=16	=16	=16	=16	=16	=16	=16
2F\]	.	2A/	.	2c\]	.	4a/]	.
.	.	.	.	.	.	4g/	.
2A\	.	1c	.	2.f\	.	2f/	.
1G	te-	.	.	.	.	2g/	.
.	.	.	.	4d\	.	.	.
.	.	2B-\	.	2e\	.	2b-i\	.
1F	.	1c	-cum;	1f	-cum;	2.a/	.
.	.	.	.	.	.	4g/	.
=17	=17	=17	=17	=17	=17	=17	=17
2D\	-cum;	2r	.	2F/	be-	2f/	.
2C/	.	2c\	be-	2G/	.	2e/	.
2r	.	2d\	.	2B-\	.	1d	-cum;
2D\	be-	2f\	.	2.A/	.	.	.
1AA	-ne-	2e\	.	.	.	2r	.
.	.	.	.	4G/	.	.	.
.	.	2A/	.	2E/	.	2c/	be-
=18	=18	=18	=18	=18	=18	=18	=18
2D\	-dic-	2B-i\	.	2F/	-ne-	2d/	-ne-
2AA/	.	2A/	.	2E/	.	2c/	.
1D	.	2r	.	2F/	-dic-	2d/	-dic-
.	.	2d\	-ne-	2.A/	.	2f/	.
1AA	.	1c	-dic-	.	.	1e	.
.	.	.	.	4G/	.	.	.
.	.	.	.	2E/	.	.	.
=19	=19	=19	=19	=19	=19	=19	=19
2D\	-ta	2d\	-ta	2D/	.	2f/	.
2AA/	.	2c\	.	1A	.	2e/	.
1D	.	2d\	.	.	.	2f/	.
.	.	4c\	.	2F/	.	4e/	.
.	.	4d\	.	.	.	4f/	.
1C	.	2e\	.	2E/	.	4g/	.
.	.	.	.	.	.	4f/	.
.	.	[2A/	.	2c\	-ta	4e/	.
.	.	.	.	.	.	4d/	.
=20	=20	=20	=20	=20	=20	=20	=20
2D\	.	2A/]	.	2r	.	2f/	.
2E\	.	2G/	.	2Bni\	be-	2.e/	.
2C/	.	2A/	.	2c\	-ne-	.	.
.	.	.	.	.	.	4d/	.
2D\	.	2F/	.	2.A/	-dic-	1d	-ta
1AA	tu	1E	.	.	.	.	.
.	.	.	.	4G/	.	.	.
.	.	.	.	2E/	.	2c#i/	.
=21	=21	=21	=21	=21	=21	=21	=21
2r	.	1D	tu	2F/	.	1d	tu
1BB-i	in	.	.	2D/	-ta	.	.
.	.	2.G/	in	1D	tu	1r	.
2GG/	.	.	.	.	.	.	.
.	.	4A/	.	.	.	.	.
[1GG	mu-	[1B-i	mu-	1r	.	1g	in
=22	=22	=22	=22	=22	=22	=22	=22
0GG]	.	2B-\]	.	0d	in	1.g	mu-
.	.	2G/	-li-	.	.	.	.
.	.	0G	-e-	.	.	.	.
.	.	.	.	.	.	4f/	.
.	.	.	.	.	.	4e/	.
[1BB-i	-li-	.	.	1d	mu-	1d	.
=23	=23	=23	=23	=23	=23	=23	=23
2BB-/]	.	0d	.	2r	.	2r	.
2C/	.	.	.	2G/	-li-	2.b-\	-li-
1D	-e-	.	.	1F	.	.	.
.	.	.	.	.	.	4a/	.
.	.	.	.	.	.	2b-i\	.
1C	-ri-	1e-i	.	1G	-e-	4cc\	-e-
.	.	.	.	.	.	4b-i\	.
.	.	.	.	.	.	4a/	.
.	.	.	.	.	.	4g/	.
=24	=24	=24	=24	=24	=24	=24	=24
0D	-bus,	0d	.	2B-\	.	1.f	.
.	.	.	.	2.A/	.	.	.
.	.	.	.	4G/	.	.	.
.	.	.	.	4F/	.	2f/	-ri-
.	.	.	.	4E/	.	.	.
1F	.	1d	-ri-	1D	.	2a/	-bus,
.	.	.	.	.	.	4b-i\	.
.	.	.	.	.	.	4cc\	.
=25	=25	=25	=25	=25	=25	=25	=25
2r	.	1G	-bus,	1B-i	-ri-	1dd	.
2G\	et	.	.	.	.	.	.
2.A\	be-	2c\	et	2A/	-bus,	2cc\	.
.	.	2d\	.	2F/	.	2a/	et
4B-i\	.	.	.	.	.	.	.
2c\	.	1e-i	.	2r	.	2g/	be-
2C/	-ne-	.	.	2G/	et	2cc\	-ne-
=26	=26	=26	=26	=26	=26	=26	=26
2D\	-dic-	2d\	be-	2F/	be-	2b-i\	-dic-
2F\	.	2c\	.	2A/	.	1a	.
2E\	.	2G/	.	2B-i\	.	.	.
2G\	.	2B-i\	.	2.G/	.	1g	.
1D	.	1A	-ne-	.	.	.	.
.	.	.	.	4F/	.	.	.
.	.	.	.	[2D/	.	2f#i/	.
=27	=27	=27	=27	=27	=27	=27	=27
1GG	.	1.G	-dic-	2D/]	.	1.g	.
.	.	.	.	2D/	-ne-	.	.
2BB-i/	.	.	.	2G/	-dic-	.	.
2AA/	.	1c	.	1A	.	4f/	.
.	.	.	.	.	.	4e/	.
1C	.	.	.	.	.	2e/	.
.	.	4Bni\	.	2A/	-tus	4d/	.
.	.	4A/	.	.	.	4c/	.
=28	=28	=28	=28	=28	=28	=28	=28
2GG/	.	1B	.	1G	.	1d	-tus
1G	.	.	.	.	.	.	.
.	.	1B	-tus	1r	.	1r	.
2F\	.	.	.	.	.	.	.
1E	-tus	1c	.	1G	fruc-	1r	.
=29	=29	=29	=29	=29	=29	=29	=29
0D	fruc-	0d	.	0A	.	0f	fruc-
1E	-tus	1r	.	1c	-tus	1g	-tus
=30	=30	=30	=30	=30	=30	=30	=30
1D	ven-	0d	fruc-	1F	ven-	1a	ven-
0GG	-tris	.	.	0G	.	1.b-i	.
.	.	1d	-tus	.	.	.	.
.	.	.	.	.	.	2a/	.
=31	=31	=31	=31	=31	=31	=31	=31
1r	.	1c	ven-	2A/	-tris	1a	-tris
.	.	.	.	1F	tu-	.	.
1r	.	2A/	.	.	.	2f/	tu-
.	.	2G/	.	2E/	.	2.g/	.
1GG	tu-	1B-	-tris	1G	.	.	.
.	.	.	.	.	.	4f/	.
.	.	.	.	.	.	4e/	.
.	.	.	.	.	.	4d/	.
=32	=32	=32	=32	=32	=32	=32	=32
1AA	-i,	1A	tu-	0C	.	2f/	.
.	.	.	.	.	.	2.e/	.
1r	.	2G/	.	.	.	.	.
.	.	.	.	.	.	4d/	.
.	.	1A	.	.	.	2c/	.
1r	.	.	.	1E	.	1B	.
.	.	2G#i/	.	.	.	.	.
=33	=33	=33	=33	=33	=33	=33	=33
1AA	fruc-	0A	-i,	1E	-i,	0.A	-i,
2.D\	.	.	.	2.F/	fruc-	.	.
4E\	.	.	.	4G/	.	.	.
1F	.	1r	.	1A	.	.	.
=34	=34	=34	=34	=34	=34	=34	=34
2.C/	-tus	1c	fruc-	1.G	-tus	0.r	.
4D\	.	.	.	.	.	.	.
2E\	.	1c	-tus	.	.	.	.
2.F\	ven-	.	.	2.A/	ven-	.	.
.	.	1c	ven-	.	.	.	.
4D\	.	.	.	4F/	.	.	.
2E\	.	.	.	2G/	.	.	.
=35	=35	=35	=35	=35	=35	=35	=35
1F	-tris	1F	-tris	1A	-tris	1a	fruc-
0BB-	tu-	0B-	tu-	0d	tu-	1f	-tus
.	.	.	.	.	.	1f	ven-
=36	=36	=36	=36	=36	=36	=36	=36
1.F	.	1A	.	1c	.	1c	-tris
.	.	0d	.	2A/	.	1r	.
1.G	.	.	.	1.B-	.	.	.
.	.	.	.	.	.	1r	.
=37	=37	=37	=37	=37	=37	=37	=37
1A	-i,	1c	.	1F	-i,	1cc	fruc-
0F	.	0A	.	0f	.	1cc	-tus
.	.	.	.	.	.	1cc	ven-
=38	=38	=38	=38	=38	=38	=38	=38
1.E	Je-	1Bni	.	1r	.	1g	-tris
.	.	0c	.	1r	.	1r	.
1.F	.	.	.	.	.	.	.
.	.	.	.	1f	Je-	1a	tu-
=39	=39	=39	=39	=39	=39	=39	=39
2G\	-sus	0.G	-i,	0d	-sus	2b\	.
2.GG/	Chri-	.	.	.	.	2cc\	.
.	.	.	.	.	.	1.dd	-i,
4FF/	.	.	.	.	.	.	.
1BB-	.	.	.	.	.	.	.
.	.	.	.	2D/	Chri-	.	.
2C/	.	.	.	2E/	.	[2cc\	Je-
=40	=40	=40	=40	=40	=40	=40	=40
1AA	.	1A	Je-	1F	.	1cc]	.
0GG	-stus.	0d	-sus	0G	.	1.b	.
.	.	.	.	.	.	2a/	.
=41	=41	=41	=41	=41	=41	=41	=41
0.r	.	2c\	Chri-	2A/	.	1.a	-sus
.	.	4B\	.	1F	.	.	.
.	.	4c\	.	.	.	.	.
.	.	2d\	.	.	.	.	.
.	.	2A/	.	2A/	.	2f/	Chri-
.	.	1B	.	1E	.	4g/	.
.	.	.	.	.	.	4f/	.
.	.	.	.	.	.	4e/	.
.	.	.	.	.	.	4d/	.
=42	=42	=42	=42	=42	=42	=42	=42
1AA	A-	2A/	.	1E	-stus.	2.c/	-stus.
.	.	4G/	.	.	.	.	.
.	.	4F/	.	.	.	8B-i/L	.
.	.	.	.	.	.	8A/J	.
2BB-/	.	2D/	.	1r	.	1G	.
2C/	.	1E	-stus.	.	.	.	.
1AA	.	.	.	1C	A-	2A/	A-
.	.	2F/	A-	.	.	2c/	.
=43	=43	=43	=43	=43	=43	=43	=43
2GG/	.	2G/	.	1.D	.	4B-i/	.
.	.	.	.	.	.	2d/	.
1D	.	1F	.	.	.	.	.
.	.	.	.	.	.	4c/	.
.	.	.	.	.	.	4B-i/	.
.	.	.	.	.	.	4A/	.
2C/	.	2E/	.	2E/	.	1A	.
1BB-i	.	1D	.	2F/	.	.	.
.	.	.	.	2G/	.	2G/	.
=44	=44	=44	=44	=44	=44	=44	=44
*	*	*	*	*^	*	*	*
0.AAl	-men.	0.El	-men.	0.Cl\	0.El/	-men.	0.Al	-men.
*	*	*	*	*v	*v	*	*	*
==	==	==	==	==	==	==	==
*-	*-	*-	*-	*-	*-	*-	*-
!!!RDF**kern: l=long note in original notation
!!!RDF**kern: i=editorial accidental
!!!RDF**kern: V=start of tuplet marker
!!!RDF**kern: Z=end of tuplet marker
!!!ENC:	Jesse Rodin 8-16-2012
!!!END:	2012/08/16/
!!!EED:	Jesse Rodin
!!!EEV:	2012/08/16/
!!!ONB:	Translated from MusicXML and edited on 2012/08/16/ by Craig Sapp
!!muse2ps: C^@{COM}^i2I150v85,85,85,130Q16
